X: 72
T:Golden Slippers
% Nottingham Music Database
S:Trad, via EF
M:4/4
L:1/4
K:D
P:A
d/2e/2|"D"ff f/2e/2d/2e/2|"D"ff "A7"fd/2e/2|"D"ff f/2e/2d/2e/2|
"A7"fe ec/2d/2|"A7"ee e/2d/2c/2d/2|"A7"ee ec/2d/2|"A7"eg fe|"D"ed d:|
P:B
c/2B/2|:"D"A3d|"D7"fe dA|"G"B3e|"Em"gf "E7"ed|"A7"cc c/2B/2c/2d/2| [1"A7"e2 A2\
|"D"d3/2c/2 "A7"de|"D"f2 "A7"a2:|
 [2"A7"e2 g2|"D"f3/2g/2 "A7"fe|"D"d2 d||<end>
<start>
